X:337
T: ACH SCHAEFER WILT DU BEUTEN
N: E1489
O: Europa, Mitteleuropa, Deutschland
R: Staende - Lied, Hirten -,  Schaefer - Lied
M: 4/4
L: 1/4
K: F
F | FFAA | c2Az
c2f2 | dcB
A | BAGA | B2G
A | BAGA | Bcd2
cAGG | F3

